2 Export/Icons/Brands/Mail.Ru.svg

<svg xmlns="http://www.w3.org/2000/svg" xmlns:xlink="http://www.w3.org/1999/xlink" width="24" height="24" viewBox="0 0 24 24">
  <defs>
    <path id="mail.ru-a" d="M11.688567,6.58480741 C13.0641053,6.58480741 14.3571413,7.19307434 15.3066677,8.14485083 L15.3066677,8.14785092 C15.3066677,7.6910882 15.6141763,7.34682862 16.0409382,7.34682862 L16.1496912,7.34682862 C16.8179598,7.34682862 16.9544636,7.9783462 16.9544636,8.17860177 L16.9582137,15.2850496 C16.9109624,15.7508126 17.4382271,15.9908192 17.7299852,15.6923109 C18.870767,14.5192783 20.236555,9.66364311 17.0204655,6.84956478 C14.023382,4.22674177 10.0025201,4.65875379 7.86346055,6.13329484 C5.59014726,7.70158849 4.13510676,11.1719351 5.54889612,14.4315258 C7.089439,17.9866248 11.4973117,19.0456543 14.1171346,17.9896249 C15.4439216,17.45336 16.0566886,19.2466599 14.6789003,19.8324262 C12.5968423,20.7204509 6.802181,20.6304484 4.09610567,15.9413179 C2.26680475,12.7754797 2.36430747,7.20432465 7.21469249,4.31824431 C10.9250458,2.11093287 15.817432,2.72219988 18.7665141,5.80253563 C21.8498499,9.02312528 21.6705949,15.0532931 18.6622612,17.3986084 C17.3002232,18.4636381 15.2751669,17.4263592 15.2886672,15.875316 L15.2744168,15.3668019 C14.3256404,16.3088281 13.0633553,16.8578434 11.687817,16.8578434 C8.96899132,16.8578434 6.57792476,14.4660268 6.57792476,11.7487012 C6.57792476,9.00437476 8.96974134,6.58480741 11.688567,6.58480741 Z M15.1094123,11.5521957 C15.0066594,9.56239029 13.5298683,8.36535697 11.7463186,8.36535697 L11.6788168,8.36535697 C9.62000944,8.36535697 8.47772765,9.98465205 8.47772765,11.8229532 C8.47772765,13.8832606 9.8592661,15.1837968 11.6698165,15.1837968 C13.6896227,15.1837968 15.0179097,13.7040056 15.1139124,11.9542069 L15.1094123,11.5521957 Z"/>
  </defs>
  <g fill="none" fill-rule="evenodd">
    <polygon points="0 0 24 0 24 24 0 24"/>
    <mask id="mail.ru-b" fill="#fff">
      <use xlink:href="#mail.ru-a"/>
    </mask>
    <use fill="#000" xlink:href="#mail.ru-a"/>
    <g fill="#000" mask="url(#mail.ru-b)">
      <rect width="24" height="24"/>
    </g>
  </g>
</svg>

<svg xmlns="http://www.w3.org/2000/svg" xmlns:xlink="http://www.w3.org/1999/xlink" width="24" height="24" viewBox="0 0 24 24">
  <defs>
    <path id="mail.ru-a" d="M11.689 6.585c1.375 0 2.668.608 3.618 1.56v.003c0-.457.307-.801.734-.801h.109c.668 0 .804.631.804.832l.004 7.106c-.047.466.48.706.772.407 1.14-1.173 2.507-6.028-.71-8.842-2.997-2.623-7.017-2.191-9.157-.717-2.273 1.569-3.728 5.039-2.314 8.299 1.54 3.555 5.948 4.614 8.568 3.558 1.327-.537 1.94 1.257.562 1.842-2.082.888-7.877.798-10.583-3.89-1.83-3.167-1.732-8.738 3.119-11.624 3.71-2.207 8.602-1.596 11.552 1.485 3.083 3.22 2.904 9.25-.105 11.596-1.362 1.065-3.387.027-3.373-1.524l-.015-.508a5.059 5.059 0 0 1-3.586 1.49c-2.719 0-5.11-2.391-5.11-5.108 0-2.745 2.392-5.164 5.11-5.164zm3.42 4.967c-.102-1.99-1.58-3.187-3.363-3.187h-.067c-2.059 0-3.201 1.62-3.201 3.458 0 2.06 1.381 3.36 3.192 3.36 2.02 0 3.348-1.479 3.444-3.229l-.005-.402z"/>
  </defs>
  <g fill="none" fill-rule="evenodd">
    <polygon points="0 0 24 0 24 24 0 24"/>
    <mask id="mail.ru-b" fill="#fff">
      <use xlink:href="#mail.ru-a"/>
    </mask>
    <use fill="#000" xlink:href="#mail.ru-a"/>
    <g fill="#000" mask="url(#mail.ru-b)">
      <rect width="24" height="24"/>
    </g>
  </g>
</svg>
